X: 18405
T: Hunted Pheasant, The
R: reel
M: 4/4
K: Amajor
EFAB Acec|B3A Bcde|f2af ecAB|c2ec BcAF|
EFAB Acec|BF F2 Bcde|f2af ecBd|cAAG A2 AF|
EFAB Acec|B3A Bcde|f2af ecAB|c2ec BcAB|
cBAF EFAB|Acec Bcde|f2af ecBd|cAAG A2 cB|
ABce a3e|fecB AFF2|fece afec|BAFA B2cB|
ABce a3e|fecB AFF2|EFAB ceec|BecB A2 cB|
ABce a3e|fecB AFF2|fece afec|BAFA B2AF|
EFAB Acec|B2cA Bcde|f2af ecBe|cAAG ABAF|

